SVG_Azure_All/User Setting.svg

<?xml version="1.0" encoding="UTF-8" standalone="no"?>
<!-- Generated by Microsoft Visio, SVG Export User Setting.svg Page-1 -->

<svg
   xmlns:dc="http://purl.org/dc/elements/1.1/"
   xmlns:cc="http://creativecommons.org/ns#"
   xmlns:rdf="http://www.w3.org/1999/02/22-rdf-syntax-ns#"
   xmlns:svg="http://www.w3.org/2000/svg"
   xmlns="http://www.w3.org/2000/svg"
   xmlns:sodipodi="http://sodipodi.sourceforge.net/DTD/sodipodi-0.dtd"
   xmlns:inkscape="http://www.inkscape.org/namespaces/inkscape"
   width="0.78767866in"
   height="0.66922444in"
   viewBox="0 0 56.712698 48.184408"
   xml:space="preserve"
   class="st5"
   version="1.1"
   id="svg57"
   sodipodi:docname="User Setting.svg"
   style="font-size:12px;overflow:visible;color-interpolation-filters:sRGB;fill:none;fill-rule:evenodd;stroke-linecap:square;stroke-miterlimit:3"
   inkscape:version="0.92.5 (2060ec1f9f, 2020-04-08)"><metadata
   id="metadata61"><rdf:RDF><cc:Work
       rdf:about=""><dc:format>image/svg+xml</dc:format><dc:type
         rdf:resource="http://purl.org/dc/dcmitype/StillImage" /></cc:Work></rdf:RDF></metadata><sodipodi:namedview
   pagecolor="#ffffff"
   bordercolor="#666666"
   borderopacity="1"
   objecttolerance="10"
   gridtolerance="10"
   guidetolerance="10"
   inkscape:pageopacity="0"
   inkscape:pageshadow="2"
   inkscape:window-width="640"
   inkscape:window-height="480"
   id="namedview59"
   showgrid="false"
   inkscape:zoom="1.5231781"
   inkscape:cx="37.808142"
   inkscape:cy="32.109182"
   inkscape:window-x="0"
   inkscape:window-y="0"
   inkscape:window-maximized="0"
   inkscape:current-layer="svg57" />
	<style
   type="text/css"
   id="style2">
	<![CDATA[
		.st1 {fill:#0078d4;stroke:none;stroke-linecap:butt;stroke-width:34}
		.st2 {fill:url(#grad0-8);stroke:none;stroke-linecap:butt;stroke-width:34}
		.st3 {fill:#ffffff;fill-opacity:0.8;stroke:none;stroke-linecap:butt;stroke-width:34}
		.st4 {fill:url(#grad0-14);stroke:none;stroke-linecap:butt;stroke-width:34}
		.st5 {fill:none;fill-rule:evenodd;font-size:12px;overflow:visible;stroke-linecap:square;stroke-miterlimit:3}
	]]>
	</style>

	<defs
   id="Patterns_And_Gradients">
		<linearGradient
   id="grad0-8"
   x1="-0.015807818"
   y1="114.29759"
   x2="33.817359"
   y2="114.29759"
   gradientTransform="scale(1.2747891,0.78444348)"
   gradientUnits="userSpaceOnUse">
			<stop
   offset="0.225"
   stop-color="#32d4f5"
   stop-opacity="1"
   id="stop4" />
			<stop
   offset="0.475"
   stop-color="#31d1f3"
   stop-opacity="1"
   id="stop6" />
			<stop
   offset="0.89"
   stop-color="#22a5cb"
   stop-opacity="1"
   id="stop8" />
			<stop
   offset="1"
   stop-color="#198ab3"
   stop-opacity="1"
   id="stop10" />
			<stop
   offset="1"
   stop-color="#198ab3"
   stop-opacity="1"
   id="stop12" />
		</linearGradient>
		<linearGradient
   id="grad0-14"
   x1="0"
   y1="90.982855"
   x2="24.36974"
   y2="90.982855"
   gradientTransform="scale(0.99266549,1.0073887)"
   gradientUnits="userSpaceOnUse">
			<stop
   offset="0.225"
   stop-color="#32d4f5"
   stop-opacity="1"
   id="stop15" />
			<stop
   offset="0.475"
   stop-color="#31d1f3"
   stop-opacity="1"
   id="stop17" />
			<stop
   offset="0.89"
   stop-color="#22a5cb"
   stop-opacity="1"
   id="stop19" />
			<stop
   offset="1"
   stop-color="#198ab3"
   stop-opacity="1"
   id="stop21" />
			<stop
   offset="1"
   stop-color="#198ab3"
   stop-opacity="1"
   id="stop23" />
		</linearGradient>
	</defs>
	<g
   id="g55"
   transform="translate(-34.000749,-34.0001)">
		<title
   id="title27">Page-1</title>
		<g
   id="group649-1"
   transform="translate(34.0204,-34.0157)">
			<title
   id="title29">User Setting</title>
			<g
   id="group650-2">
				<title
   id="title31">g10</title>
				<g
   id="shape651-3"
   transform="translate(17.573,-5.73831)">
					<title
   id="title33">path2</title>
					<path
   d="m 39.12,98.49 v -4.53 l -0.63,-0.23 -4.77,-1.61 -1.27,-3.09 2.43,-5.24 -3.13,-3.18 -0.63,0.32 -4.47,2.3 -3.05,-1.28 -1.95,-5.48 H 17.21 L 16.98,77.11 15.4,81.96 12.35,83.24 7.29,80.78 4.16,83.96 4.47,84.6 6.74,89.13 5.48,92.22 0,94.21 v 4.52 l 0.63,0.23 4.77,1.61 1.27,3.09 -2.45,5.23 3.13,3.18 0.63,-0.32 4.46,-2.31 3.05,1.29 1.96,5.47 h 4.46 l 0.24,-0.64 1.56,-4.84 3.05,-1.28 5.17,2.46 3.13,-3.18 -0.32,-0.64 -2.27,-4.53 1.27,-3.09 z m -19.56,6.57 a 8.58591,8.71325 0 1 1 8.58,-8.71 8.57643,8.70364 0 0 1 -8.58,8.71 z"
   class="st1"
   id="path35"
   inkscape:connector-curvature="0"
   style="fill:#0078d4;stroke:none;stroke-width:34;stroke-linecap:butt" />
				</g>
				<g
   id="shape652-5">
					<title
   id="title38">path4</title>
					<path
   d="m 39.26,116.2 a 3.83807,3.895 -180 0 0 3.85,-3.87 4.46354,4.52974 -180 0 0 -0.03,-0.47 C 41.57,99.62 34.7,89.66 21.58,89.66 8.23,89.66 1.34,98.1 0,111.89 a 3.85387,3.91103 -180 0 0 3.44,4.29 3.15891,3.20576 -180 0 0 0.39,0.02 z"
   class="st2"
   id="path40"
   inkscape:connector-curvature="0"
   style="fill:url(#grad0-8);stroke:none;stroke-width:34;stroke-linecap:butt" />
				</g>
				<g
   id="shape653-9"
   transform="translate(15.2354,-8.41191)">
					<title
   id="title43">path6</title>
					<path
   d="M 6.55,100.97 A 12.0291,12.2075 0 0 1 0,99.02 l 6.48,17.18 6.44,-17.07 a 12.0354,12.2139 0 0 1 -6.37,1.84 z"
   class="st3"
   id="path45"
   inkscape:connector-curvature="0"
   style="fill:#ffffff;fill-opacity:0.8;stroke:none;stroke-width:34;stroke-linecap:butt" />
				</g>
				<g
   id="shape654-11"
   transform="translate(9.59992,-23.6393)">
					<title
   id="title48">circle8</title>
					<ellipse
   cx="12.0955"
   cy="103.93"
   rx="12.0955"
   ry="12.2749"
   class="st4"
   id="ellipse50"
   style="fill:url(#grad0-14);stroke:none;stroke-width:34;stroke-linecap:butt" />
				</g>
			</g>
		</g>
	</g>
</svg>

<?xml version="1.0" encoding="UTF-8" standalone="no"?>
<!DOCTYPE svg PUBLIC "-//W3C//DTD SVG 1.1//EN" "http://www.w3.org/Graphics/SVG/1.1/DTD/svg11.dtd">
<!-- Generated by Microsoft Visio, SVG Export User Setting.svg Page-1 -->
<svg xmlns="http://www.w3.org/2000/svg" xmlns:xlink="http://www.w3.org/1999/xlink" xmlns:ev="http://www.w3.org/2001/xml-events"
		width="1.73213in" height="1.61395in" viewBox="0 0 124.713 116.205" xml:space="preserve" color-interpolation-filters="sRGB"
		class="st5">
	<style type="text/css">
	<![CDATA[
		.st1 {fill:#0078d4;stroke:none;stroke-linecap:butt;stroke-width:34}
		.st2 {fill:url(#grad0-8);stroke:none;stroke-linecap:butt;stroke-width:34}
		.st3 {fill:#ffffff;fill-opacity:0.8;stroke:none;stroke-linecap:butt;stroke-width:34}
		.st4 {fill:url(#grad0-14);stroke:none;stroke-linecap:butt;stroke-width:34}
		.st5 {fill:none;fill-rule:evenodd;font-size:12px;overflow:visible;stroke-linecap:square;stroke-miterlimit:3}
	]]>
	</style>

	<defs id="Patterns_And_Gradients">
		<linearGradient id="grad0-8" x1="0" y1="0" x2="1" y2="0" gradientTransform="rotate(90 0.5 0.5)">
			<stop offset="0.225" stop-color="#32d4f5" stop-opacity="1"/>
			<stop offset="0.475" stop-color="#31d1f3" stop-opacity="1"/>
			<stop offset="0.89" stop-color="#22a5cb" stop-opacity="1"/>
			<stop offset="1" stop-color="#198ab3" stop-opacity="1"/>
			<stop offset="1" stop-color="#198ab3" stop-opacity="1"/>
		</linearGradient>
		<linearGradient id="grad0-14" x1="0" y1="0" x2="1" y2="0" gradientTransform="rotate(85.400860112072 0.5 0.5)">
			<stop offset="0.225" stop-color="#32d4f5" stop-opacity="1"/>
			<stop offset="0.475" stop-color="#31d1f3" stop-opacity="1"/>
			<stop offset="0.89" stop-color="#22a5cb" stop-opacity="1"/>
			<stop offset="1" stop-color="#198ab3" stop-opacity="1"/>
			<stop offset="1" stop-color="#198ab3" stop-opacity="1"/>
		</linearGradient>
	</defs>
	<g>
		<title>Page-1</title>
		<g id="group634-1" transform="translate(34.0204,-34.0157)">
			<title>User Setting</title>
			<g id="group635-2">
				<title>g10</title>
				<g id="shape636-3" transform="translate(17.573,-5.73831)">
					<title>path2</title>
					<path d="M39.12 98.49 L39.12 93.96 L38.49 93.73 L33.72 92.12 L32.45 89.03 L34.88 83.79 L31.75 80.61 L31.12 80.93
								 L26.65 83.23 L23.6 81.95 L21.65 76.47 L17.21 76.47 L16.98 77.11 L15.4 81.96 L12.35 83.24 L7.29 80.78
								 L4.16 83.96 L4.47 84.6 L6.74 89.13 L5.48 92.22 L0 94.21 L0 98.73 L0.63 98.96 L5.4 100.57 L6.67 103.66
								 L4.22 108.89 L7.35 112.07 L7.98 111.75 L12.44 109.44 L15.49 110.73 L17.45 116.2 L21.91 116.2 L22.15
								 115.56 L23.71 110.72 L26.76 109.44 L31.93 111.9 L35.06 108.72 L34.74 108.08 L32.47 103.55 L33.74
								 100.46 L39.12 98.49 ZM19.56 105.06 A8.58591 8.71325 0 1 1 28.14 96.35 A8.57643 8.70364 0 0 1 19.56
								 105.06 Z" class="st1"/>
				</g>
				<g id="shape637-5">
					<title>path4</title>
					<path d="M39.26 116.2 A3.83807 3.895 -180 0 0 43.11 112.33 A4.46354 4.52974 -180 0 0 43.08 111.86 C41.57 99.62
								 34.7 89.66 21.58 89.66 C8.23 89.66 1.34 98.1 0 111.89 A3.85387 3.91103 -180 0 0 3.44 116.18 A3.15891
								 3.20576 -180 0 0 3.83 116.2 L39.26 116.2 Z" class="st2"/>
				</g>
				<g id="shape638-9" transform="translate(15.2354,-8.41191)">
					<title>path6</title>
					<path d="M6.55 100.97 A12.0291 12.2075 0 0 1 -0 99.02 L6.48 116.2 L12.92 99.13 A12.0354 12.2139 0 0 1 6.55 100.97
								 Z" class="st3"/>
				</g>
				<g id="shape639-11" transform="translate(9.59992,-23.6393)">
					<title>circle8</title>
					<ellipse cx="12.0955" cy="103.93" rx="12.0955" ry="12.2749" class="st4"/>
				</g>
			</g>
		</g>
	</g>
</svg>
